%
(DIV-D)
(T3  D=3 CR=0 - ZMIN=-1.535 - fresa con punta plana)
G90 G94
G17
G21

(Contorno 2D2)
T3 M6
S5000 M3
G54
M8
G0 X15.3 Y-1.384
G0 Z15
G0 Z5
G1 Z1.6 F333.3
G1 Z-0.3
G1 Y-1.376 Z-0.367 F1000
G1 Y-1.354 Z-0.43
G1 Y-1.319 Z-0.487
G1 Y-1.271 Z-0.535
G1 Y-1.214 Z-0.57
G1 Y-1.151 Z-0.592
G1 Y-1.084 Z-0.6
G1 Y-0.784
G3 X15 Y-0.484 I-0.3 J0
G1 X5
G1 X4.902 Y-0.481
G1 X4.894 Y-0.48
G1 X4.796 Y-0.471
G1 X3.781 Y-0.337
G1 X3.684 Y-0.321
G1 X3.589 Y-0.299
G1 X3.573 Y-0.294
G1 X3.479 Y-0.266
G1 X3.387 Y-0.231
G1 X2.441 Y0.16
G1 X2.352 Y0.201
G1 X2.266 Y0.247
G1 X2.251 Y0.255
G1 X2.168 Y0.307
G1 X2.088 Y0.364
G1 X1.276 Y0.987
G1 X1.2 Y1.05
G1 X1.128 Y1.117
G1 X1.117 Y1.128
G1 X1.05 Y1.2
G1 X0.987 Y1.276
G1 X0.364 Y2.088
G1 X0.307 Y2.168
G1 X0.255 Y2.251
G1 X0.247 Y2.266
G1 X0.201 Y2.352
G1 X0.16 Y2.441
G1 X-0.231 Y3.387
G1 X-0.266 Y3.479
G1 X-0.294 Y3.573
G1 X-0.299 Y3.589
G1 X-0.321 Y3.684
G1 X-0.337 Y3.781
G1 X-0.471 Y4.796
G1 X-0.48 Y4.894
G1 X-0.481 Y4.902
G1 X-0.484 Y5
G1 Y35
G1 X-0.481 Y35.097
G1 X-0.48 Y35.106
G1 X-0.471 Y35.204
G1 X-0.337 Y36.219
G1 X-0.321 Y36.316
G1 X-0.299 Y36.411
G1 X-0.294 Y36.427
G1 X-0.266 Y36.521
G1 X-0.231 Y36.613
G1 X0.16 Y37.559
G1 X0.2 Y37.647
G1 X0.246 Y37.733
G1 X0.254 Y37.747
G1 X0.307 Y37.831
G1 X0.364 Y37.912
G1 X0.987 Y38.724
G1 X1.05 Y38.8
G1 X1.118 Y38.872
G1 X1.129 Y38.884
G1 X1.201 Y38.951
G1 X1.276 Y39.013
G1 X2.088 Y39.636
G1 X2.167 Y39.693
G1 X2.25 Y39.744
G1 X2.265 Y39.753
G1 X2.352 Y39.799
G1 X2.441 Y39.84
G1 X3.387 Y40.231
G1 X3.478 Y40.266
G1 X3.572 Y40.294
G1 X3.588 Y40.299
G1 X3.684 Y40.321
G1 X3.781 Y40.337
G1 X4.796 Y40.471
G1 X4.901 Y40.481
G1 X4.91
G1 X5 Y40.484
G1 X25
G1 X25.09 Y40.481
G1 X25.098
G1 X25.204 Y40.471
G1 X26.219 Y40.337
G1 X26.316 Y40.321
G1 X26.412 Y40.299
G1 X26.428 Y40.294
G1 X26.522 Y40.266
G1 X26.613 Y40.231
G1 X27.559 Y39.84
G1 X27.647 Y39.799
G1 X27.734 Y39.753
G1 X27.748 Y39.745
G1 X27.832 Y39.693
G1 X27.912 Y39.636
G1 X28.724 Y39.013
G1 X28.8 Y38.95
G1 X28.872 Y38.883
G1 X28.883 Y38.872
G1 X28.95 Y38.8
G1 X29.013 Y38.724
G1 X29.636 Y37.912
G1 X29.693 Y37.832
G1 X29.745 Y37.748
G1 X29.753 Y37.734
G1 X29.799 Y37.647
G1 X29.84 Y37.559
G1 X30.231 Y36.613
G1 X30.266 Y36.522
G1 X30.294 Y36.428
G1 X30.298 Y36.412
G1 X30.321 Y36.316
G1 X30.337 Y36.219
G1 X30.471 Y35.204
G1 X30.481 Y35.098
G1 Y35.09
G1 X30.484 Y35
G1 Y5
G1 X30.481 Y4.91
G1 Y4.901
G1 X30.471 Y4.796
G1 X30.337 Y3.781
G1 X30.321 Y3.684
G1 X30.299 Y3.588
G1 X30.294 Y3.572
G1 X30.266 Y3.478
G1 X30.231 Y3.387
G1 X29.84 Y2.441
G1 X29.799 Y2.352
G1 X29.753 Y2.265
G1 X29.744 Y2.25
G1 X29.693 Y2.167
G1 X29.636 Y2.088
G1 X29.013 Y1.276
G1 X28.951 Y1.201
G1 X28.884 Y1.129
G1 X28.872 Y1.118
G1 X28.8 Y1.05
G1 X28.724 Y0.987
G1 X27.912 Y0.364
G1 X27.831 Y0.307
G1 X27.747 Y0.254
G1 X27.733 Y0.246
G1 X27.647 Y0.2
G1 X27.559 Y0.16
G1 X26.613 Y-0.231
G1 X26.521 Y-0.266
G1 X26.427 Y-0.294
G1 X26.411 Y-0.299
G1 X26.316 Y-0.321
G1 X26.219 Y-0.337
G1 X25.204 Y-0.471
G1 X25.106 Y-0.48
G1 X25.097 Y-0.481
G1 X25 Y-0.484
G1 X15
G3 X14.7 Y-0.784 I0 J-0.3
G1 Y-1.084
G1 Y-1.151 Z-0.592
G1 Y-1.214 Z-0.57
G1 Y-1.271 Z-0.535
G1 Y-1.319 Z-0.487
G1 Y-1.354 Z-0.43
G1 Y-1.376 Z-0.367
G1 Y-1.384 Z-0.3
G0 Z5
G0 X15.3
G1 Z1 F333.3
G1 Z-0.9
G1 Y-1.376 Z-0.967 F1000
G1 Y-1.354 Z-1.03
G1 Y-1.319 Z-1.087
G1 Y-1.271 Z-1.135
G1 Y-1.214 Z-1.17
G1 Y-1.151 Z-1.192
G1 Y-1.084 Z-1.2
G1 Y-0.784
G3 X15 Y-0.484 I-0.3 J0
G1 X5
G1 X4.902 Y-0.481
G1 X4.894 Y-0.48
G1 X4.796 Y-0.471
G1 X3.781 Y-0.337
G1 X3.684 Y-0.321
G1 X3.589 Y-0.299
G1 X3.573 Y-0.294
G1 X3.479 Y-0.266
G1 X3.387 Y-0.231
G1 X2.441 Y0.16
G1 X2.352 Y0.201
G1 X2.266 Y0.247
G1 X2.251 Y0.255
G1 X2.168 Y0.307
G1 X2.088 Y0.364
G1 X1.276 Y0.987
G1 X1.2 Y1.05
G1 X1.128 Y1.117
G1 X1.117 Y1.128
G1 X1.05 Y1.2
G1 X0.987 Y1.276
G1 X0.364 Y2.088
G1 X0.307 Y2.168
G1 X0.255 Y2.251
G1 X0.247 Y2.266
G1 X0.201 Y2.352
G1 X0.16 Y2.441
G1 X-0.231 Y3.387
G1 X-0.266 Y3.479
G1 X-0.294 Y3.573
G1 X-0.299 Y3.589
G1 X-0.321 Y3.684
G1 X-0.337 Y3.781
G1 X-0.471 Y4.796
G1 X-0.48 Y4.894
G1 X-0.481 Y4.902
G1 X-0.484 Y5
G1 Y35
G1 X-0.481 Y35.097
G1 X-0.48 Y35.106
G1 X-0.471 Y35.204
G1 X-0.337 Y36.219
G1 X-0.321 Y36.316
G1 X-0.299 Y36.411
G1 X-0.294 Y36.427
G1 X-0.266 Y36.521
G1 X-0.231 Y36.613
G1 X0.16 Y37.559
G1 X0.2 Y37.647
G1 X0.246 Y37.733
G1 X0.254 Y37.747
G1 X0.307 Y37.831
G1 X0.364 Y37.912
G1 X0.987 Y38.724
G1 X1.05 Y38.8
G1 X1.118 Y38.872
G1 X1.129 Y38.884
G1 X1.201 Y38.951
G1 X1.276 Y39.013
G1 X2.088 Y39.636
G1 X2.167 Y39.693
G1 X2.25 Y39.744
G1 X2.265 Y39.753
G1 X2.352 Y39.799
G1 X2.441 Y39.84
G1 X3.387 Y40.231
G1 X3.478 Y40.266
G1 X3.572 Y40.294
G1 X3.588 Y40.299
G1 X3.684 Y40.321
G1 X3.781 Y40.337
G1 X4.796 Y40.471
G1 X4.901 Y40.481
G1 X4.91
G1 X5 Y40.484
G1 X25
G1 X25.09 Y40.481
G1 X25.098
G1 X25.204 Y40.471
G1 X26.219 Y40.337
G1 X26.316 Y40.321
G1 X26.412 Y40.299
G1 X26.428 Y40.294
G1 X26.522 Y40.266
G1 X26.613 Y40.231
G1 X27.559 Y39.84
G1 X27.647 Y39.799
G1 X27.734 Y39.753
G1 X27.748 Y39.745
G1 X27.832 Y39.693
G1 X27.912 Y39.636
G1 X28.724 Y39.013
G1 X28.8 Y38.95
G1 X28.872 Y38.883
G1 X28.883 Y38.872
G1 X28.95 Y38.8
G1 X29.013 Y38.724
G1 X29.636 Y37.912
G1 X29.693 Y37.832
G1 X29.745 Y37.748
G1 X29.753 Y37.734
G1 X29.799 Y37.647
G1 X29.84 Y37.559
G1 X30.231 Y36.613
G1 X30.266 Y36.522
G1 X30.294 Y36.428
G1 X30.298 Y36.412
G1 X30.321 Y36.316
G1 X30.337 Y36.219
G1 X30.471 Y35.204
G1 X30.481 Y35.098
G1 Y35.09
G1 X30.484 Y35
G1 Y5
G1 X30.481 Y4.91
G1 Y4.901
G1 X30.471 Y4.796
G1 X30.337 Y3.781
G1 X30.321 Y3.684
G1 X30.299 Y3.588
G1 X30.294 Y3.572
G1 X30.266 Y3.478
G1 X30.231 Y3.387
G1 X29.84 Y2.441
G1 X29.799 Y2.352
G1 X29.753 Y2.265
G1 X29.744 Y2.25
G1 X29.693 Y2.167
G1 X29.636 Y2.088
G1 X29.013 Y1.276
G1 X28.951 Y1.201
G1 X28.884 Y1.129
G1 X28.872 Y1.118
G1 X28.8 Y1.05
G1 X28.724 Y0.987
G1 X27.912 Y0.364
G1 X27.831 Y0.307
G1 X27.747 Y0.254
G1 X27.733 Y0.246
G1 X27.647 Y0.2
G1 X27.559 Y0.16
G1 X26.613 Y-0.231
G1 X26.521 Y-0.266
G1 X26.427 Y-0.294
G1 X26.411 Y-0.299
G1 X26.316 Y-0.321
G1 X26.219 Y-0.337
G1 X25.204 Y-0.471
G1 X25.106 Y-0.48
G1 X25.097 Y-0.481
G1 X25 Y-0.484
G1 X15
G3 X14.7 Y-0.784 I0 J-0.3
G1 Y-1.084
G1 Y-1.151 Z-1.192
G1 Y-1.214 Z-1.17
G1 Y-1.271 Z-1.135
G1 Y-1.319 Z-1.087
G1 Y-1.354 Z-1.03
G1 Y-1.376 Z-0.967
G1 Y-1.384 Z-0.9
G0 Z5
G0 X15.3
G1 Z0.4 F333.3
G1 Z-1.235
G1 Y-1.376 Z-1.302 F1000
G1 Y-1.354 Z-1.365
G1 Y-1.319 Z-1.422
G1 Y-1.271 Z-1.47
G1 Y-1.214 Z-1.505
G1 Y-1.151 Z-1.527
G1 Y-1.084 Z-1.535
G1 Y-0.784
G3 X15 Y-0.484 I-0.3 J0
G1 X5
G1 X4.902 Y-0.481
G1 X4.894 Y-0.48
G1 X4.796 Y-0.471
G1 X3.781 Y-0.337
G1 X3.684 Y-0.321
G1 X3.589 Y-0.299
G1 X3.573 Y-0.294
G1 X3.479 Y-0.266
G1 X3.387 Y-0.231
G1 X2.441 Y0.16
G1 X2.352 Y0.201
G1 X2.266 Y0.247
G1 X2.251 Y0.255
G1 X2.168 Y0.307
G1 X2.088 Y0.364
G1 X1.276 Y0.987
G1 X1.2 Y1.05
G1 X1.128 Y1.117
G1 X1.117 Y1.128
G1 X1.05 Y1.2
G1 X0.987 Y1.276
G1 X0.364 Y2.088
G1 X0.307 Y2.168
G1 X0.255 Y2.251
G1 X0.247 Y2.266
G1 X0.201 Y2.352
G1 X0.16 Y2.441
G1 X-0.231 Y3.387
G1 X-0.266 Y3.479
G1 X-0.294 Y3.573
G1 X-0.299 Y3.589
G1 X-0.321 Y3.684
G1 X-0.337 Y3.781
G1 X-0.471 Y4.796
G1 X-0.48 Y4.894
G1 X-0.481 Y4.902
G1 X-0.484 Y5
G1 Y35
G1 X-0.481 Y35.097
G1 X-0.48 Y35.106
G1 X-0.471 Y35.204
G1 X-0.337 Y36.219
G1 X-0.321 Y36.316
G1 X-0.299 Y36.411
G1 X-0.294 Y36.427
G1 X-0.266 Y36.521
G1 X-0.231 Y36.613
G1 X0.16 Y37.559
G1 X0.2 Y37.647
G1 X0.246 Y37.733
G1 X0.254 Y37.747
G1 X0.307 Y37.831
G1 X0.364 Y37.912
G1 X0.987 Y38.724
G1 X1.05 Y38.8
G1 X1.118 Y38.872
G1 X1.129 Y38.884
G1 X1.201 Y38.951
G1 X1.276 Y39.013
G1 X2.088 Y39.636
G1 X2.167 Y39.693
G1 X2.25 Y39.744
G1 X2.265 Y39.753
G1 X2.352 Y39.799
G1 X2.441 Y39.84
G1 X3.387 Y40.231
G1 X3.478 Y40.266
G1 X3.572 Y40.294
G1 X3.588 Y40.299
G1 X3.684 Y40.321
G1 X3.781 Y40.337
G1 X4.796 Y40.471
G1 X4.901 Y40.481
G1 X4.91
G1 X5 Y40.484
G1 X25
G1 X25.09 Y40.481
G1 X25.098
G1 X25.204 Y40.471
G1 X26.219 Y40.337
G1 X26.316 Y40.321
G1 X26.412 Y40.299
G1 X26.428 Y40.294
G1 X26.522 Y40.266
G1 X26.613 Y40.231
G1 X27.559 Y39.84
G1 X27.647 Y39.799
G1 X27.734 Y39.753
G1 X27.748 Y39.745
G1 X27.832 Y39.693
G1 X27.912 Y39.636
G1 X28.724 Y39.013
G1 X28.8 Y38.95
G1 X28.872 Y38.883
G1 X28.883 Y38.872
G1 X28.95 Y38.8
G1 X29.013 Y38.724
G1 X29.636 Y37.912
G1 X29.693 Y37.832
G1 X29.745 Y37.748
G1 X29.753 Y37.734
G1 X29.799 Y37.647
G1 X29.84 Y37.559
G1 X30.231 Y36.613
G1 X30.266 Y36.522
G1 X30.294 Y36.428
G1 X30.298 Y36.412
G1 X30.321 Y36.316
G1 X30.337 Y36.219
G1 X30.471 Y35.204
G1 X30.481 Y35.098
G1 Y35.09
G1 X30.484 Y35
G1 Y5
G1 X30.481 Y4.91
G1 Y4.901
G1 X30.471 Y4.796
G1 X30.337 Y3.781
G1 X30.321 Y3.684
G1 X30.299 Y3.588
G1 X30.294 Y3.572
G1 X30.266 Y3.478
G1 X30.231 Y3.387
G1 X29.84 Y2.441
G1 X29.799 Y2.352
G1 X29.753 Y2.265
G1 X29.744 Y2.25
G1 X29.693 Y2.167
G1 X29.636 Y2.088
G1 X29.013 Y1.276
G1 X28.951 Y1.201
G1 X28.884 Y1.129
G1 X28.872 Y1.118
G1 X28.8 Y1.05
G1 X28.724 Y0.987
G1 X27.912 Y0.364
G1 X27.831 Y0.307
G1 X27.747 Y0.254
G1 X27.733 Y0.246
G1 X27.647 Y0.2
G1 X27.559 Y0.16
G1 X26.613 Y-0.231
G1 X26.521 Y-0.266
G1 X26.427 Y-0.294
G1 X26.411 Y-0.299
G1 X26.316 Y-0.321
G1 X26.219 Y-0.337
G1 X25.204 Y-0.471
G1 X25.106 Y-0.48
G1 X25.097 Y-0.481
G1 X25 Y-0.484
G1 X15
G3 X14.7 Y-0.784 I0 J-0.3
G1 Y-1.084
G1 Y-1.151 Z-1.527
G1 Y-1.214 Z-1.505
G1 Y-1.271 Z-1.47
G1 Y-1.319 Z-1.422
G1 Y-1.354 Z-1.365
G1 Y-1.376 Z-1.302
G1 Y-1.384 Z-1.235
G0 Z15
M9
M30
%
