%
(DIV-C)
(T3  D=3 CR=0 - ZMIN=-2.035 - fresa con punta plana)
G90 G94
G17
G21

(DIV_C)
T3 M6
S5000 M3
G54
M8
G0 X25 Y5
G0 Z15
G0 Z5
G0 Z4.965
G1 Z-2.035 F333.3
G0 Z5
G0 X5
G0 Z4.965
G1 Z-2.035 F333.3
G0 Z5
G0 Y35
G0 Z4.965
G1 Z-2.035 F333.3
G0 Z5
G0 X25
G0 Z4.965
G1 Z-2.035 F333.3
G0 Z5
G0 Z15
M9
M30
%
