%
(DIV-B)
(T2  D=1 CR=0 - ZMIN=-2.035 - fresa con punta plana)
G90 G94
G17
G21

(DIV_B)
T2 M6
S24000 M3
G54
M8
G0 X24.13 Y11.26
G0 Z15
G0 Z5
G1 Z-2.035 F333.3
G0 Z5
G0 X21.12 Y8.25
G1 Z-2.035 F333.3
G0 Z5
G0 X9.36
G1 Z-2.035 F333.3
G0 Z5
G0 X5.08 Y12.53
G1 Z-2.035 F333.3
G0 Z5
G0 Y24.29
G1 Z-2.035 F333.3
G0 Z5
G0 X10.16 Y33.65
G1 Z-2.035 F333.3
G0 Z5
G0 X15.24
G1 Z-2.035 F333.3
G0 Z5
G0 X20.32
G1 Z-2.035 F333.3
G0 Z5
G0 X24.13 Y23.02
G1 Z-2.035 F333.3
G0 Z5
G0 Z15
M9
M30
%
