%
(modB2)
(T2  D=1 CR=0 - ZMIN=-1.735 - fresa con punta plana)
G90 G94
G17
G21

(Taladrar3)
T2 M6
S24000 M3
G54
M8
G0 X5 Y5
G0 Z15
G0 Z5
G0 Z4.965
G1 Z-1.735 F333.3
G0 Z5
G0 X9.36 Y8.25
G0 Z4.965
G1 Z-1.735 F333.3
G0 Z5
G0 X5.08 Y12.53
G0 Z4.965
G1 Z-1.735 F333.3
G0 Z5
G0 X21.12 Y8.25
G0 Z4.965
G1 Z-1.735 F333.3
G0 Z5
G0 X24.13 Y11.26
G0 Z4.965
G1 Z-1.735 F333.3
G0 Z5
G0 Y23.02
G0 Z4.965
G1 Z-1.735 F333.3
G0 Z5
G0 X5.08 Y24.29
G0 Z4.965
G1 Z-1.735 F333.3
G0 Z5
G0 X10.16 Y33.65
G0 Z4.965
G1 Z-1.735 F333.3
G0 Z5
G0 X15.24
G0 Z4.965
G1 Z-1.735 F333.3
G0 Z5
G0 X20.32
G0 Z4.965
G1 Z-1.735 F333.3
G0 Z5
G0 Z15
M9
M30
%
