%
(modelo B1)
(T1  D=0.2 CR=2.5 TAPER=5deg - ZMIN=-0.045 - Fresa conica)
G90 G94
G17
G21

(Contorno 2D6)
T1 M6
S24000 M3
G54
M8
G0 X7.506 Y4.98
G0 Z15
G0 Z5
G1 Z1 F333.3
G1 Z-0.025
G1 X7.512 Z-0.039 F600
G1 X7.526 Z-0.045
G1 X7.546
G1 X7.56 Y4.986
G1 X7.566 Y5
G1 Y5.338
G1 X7.391 Y5.99
G1 X7.053 Y6.576
G1 X6.576 Y7.053
G1 X5.99 Y7.391
G1 X5.338 Y7.566
G1 X4.662
G1 X4.01 Y7.391
G1 X3.424 Y7.053
G1 X2.947 Y6.576
G1 X2.609 Y5.99
G1 X2.434 Y5.338
G1 Y4.662
G1 X2.609 Y4.01
G1 X2.947 Y3.424
G1 X3.424 Y2.947
G1 X4.01 Y2.609
G1 X4.662 Y2.434
G1 X5.338
G1 X5.99 Y2.609
G1 X6.576 Y2.947
G1 X7.053 Y3.424
G1 X7.391 Y4.01
G1 X7.566 Y4.662
G1 Y5
G1 X7.56 Y5.014
G1 X7.546 Y5.02
G1 X7.526
G1 X7.512 Z-0.039
G1 X7.506 Z-0.025
G0 Z15

(Contorno 2D5)
G0 X15.183 Y23.177
G0 Z15
G0 Z5
G1 Z1 F333.3
G1 Z-0.025
G1 X15.187 Y23.181 Z-0.039 F600
G1 X15.197 Y23.191 Z-0.045
G1 X15.211 Y23.205
G1 X15.217 Y23.219
G1 X15.211 Y23.233
G1 X14.462 Y23.982
G2 X14.14 Y24.76 I0.778 J0.778
G1 Y33.65
G2 X15.251 Y34.75 I1.1 J0
G1 X15.255
G1 X15.334 Y34.746
G1 X15.338
G2 X16.34 Y33.65 I-0.098 J-1.096
G1 Y25.216
G1 X24.908 Y16.648
G2 X25.23 Y15.87 I-0.778 J-0.778
G1 Y11.26
G2 X24.908 Y10.482 I-1.1 J0
G1 X21.898 Y7.472
G2 X20.342 Y9.028 I-0.778 J0.778
G1 X23.03 Y11.716
G1 Y15.414
G1 X15.211 Y23.233
G1 X15.197 Y23.239
G1 X15.183 Y23.233
G1 X15.169 Y23.219
G1 X15.159 Y23.209 Z-0.039
G1 X15.154 Y23.205 Z-0.025
G0 Z5
G0 X6.24 Y24.31
G1 Z1 F333.3
G1 Z-0.025
G1 X6.234 Z-0.039 F600
G1 X6.22 Z-0.045
G1 X6.2
G1 X6.186 Y24.304
G1 X6.18 Y24.29
G2 X3.98 I-1.1 J0
G1 Y28.57
G2 X4.302 Y29.348 I1.1 J0
G1 X9.382 Y34.428
G2 X10.166 Y34.75 I0.778 J-0.778
G1 X10.17
G1 X10.249 Y34.746
G1 X10.253
G2 X10.938 Y32.872 I-0.093 J-1.096
G1 X6.18 Y28.114
G1 Y24.29
G1 X6.186 Y24.276
G1 X6.2 Y24.27
G1 X6.22
G1 X6.234 Z-0.039
G1 X6.24 Z-0.025
G0 Z5
G0 X10.208 Y9.042
G1 Z1 F333.3
G1 Z-0.025
G1 X10.203 Y9.038 Z-0.039 F600
G1 X10.193 Y9.029 Z-0.045
G1 X10.178 Y9.015
G1 X10.171 Y9.001
G1 X10.177 Y8.987
G2 X8.582 Y7.472 I-0.817 J-0.737
G1 X4.302 Y11.752
G2 X5.097 Y13.63 I0.778 J0.778
G1 X5.101
G1 X5.18 Y13.625
G1 X5.184
G2 X5.858 Y13.308 I-0.104 J-1.095
G1 X10.138 Y9.028
G1 X10.177 Y8.987
G1 X10.19 Y8.98
G1 X10.205 Y8.986
G1 X10.22 Y8.999
G1 X10.23 Y9.008 Z-0.039
G1 X10.234 Y9.012 Z-0.025
G0 Z15
M9
M30
%
