%
(modeB2)
(T2  D=1 CR=0 - ZMIN=-0.2 - fresa con punta plana)
G90 G94
G17
G21

(Taladrar3)
T2 M6
S24000 M3
G54
M8
G0 X-10 Y-15
G0 Z16.535
G0 Z6.535
G0 Z6.5
G1 Z-0.2 F333.3
G0 Z6.535
G0 X-5.64 Y-11.75
G0 Z6.5
G1 Z-0.2 F333.3
G0 Z6.535
G0 X-9.92 Y-7.47
G0 Z6.5
G1 Z-0.2 F333.3
G0 Z6.535
G0 X6.12 Y-11.75
G0 Z6.5
G1 Z-0.2 F333.3
G0 Z6.535
G0 X9.13 Y-8.74
G0 Z6.5
G1 Z-0.2 F333.3
G0 Z6.535
G0 Y3.02
G0 Z6.5
G1 Z-0.2 F333.3
G0 Z6.535
G0 X-9.92 Y4.29
G0 Z6.5
G1 Z-0.2 F333.3
G0 Z6.535
G0 X-4.84 Y13.65
G0 Z6.5
G1 Z-0.2 F333.3
G0 Z6.535
G0 X0.24
G0 Z6.5
G1 Z-0.2 F333.3
G0 Z6.535
G0 X5.32
G0 Z6.5
G1 Z-0.2 F333.3
G0 Z6.535
G0 Z16.535
M9
M30
%
